svgs/light/ballot.svg

<svg xmlns="http://www.w3.org/2000/svg" viewBox="0 0 448 512"><!-- Font Awesome Pro 6.0.0-alpha2 by @fontawesome - https://fontawesome.com License - https://fontawesome.com/license (Commercial License) --><path d="M96 232C82.746 232 72 242.744 72 256C72 269.254 82.746 280 96 280C109.256 280 120 269.254 120 256C120 242.744 109.256 232 96 232ZM96 360C82.746 360 72 370.744 72 384C72 397.254 82.746 408 96 408C109.256 408 120 397.254 120 384C120 370.744 109.256 360 96 360ZM96 104C82.746 104 72 114.744 72 128C72 141.254 82.746 152 96 152C109.256 152 120 141.254 120 128C120 114.744 109.256 104 96 104ZM384 0H64C28.654 0 0 28.652 0 64V448C0 483.346 28.654 512 64 512H384C419.346 512 448 483.346 448 448V64C448 28.652 419.346 0 384 0ZM416 448C416 465.645 401.645 480 384 480H64C46.355 480 32 465.645 32 448V64C32 46.355 46.355 32 64 32H384C401.645 32 416 46.355 416 64V448ZM352 368H176C167.156 368 160 375.156 160 384S167.156 400 176 400H352C360.844 400 368 392.844 368 384S360.844 368 352 368ZM352 112H176C167.156 112 160 119.156 160 128S167.156 144 176 144H352C360.844 144 368 136.844 368 128S360.844 112 352 112ZM352 240H176C167.156 240 160 247.156 160 256S167.156 272 176 272H352C360.844 272 368 264.844 368 256S360.844 240 352 240Z"/></svg>

<svg xmlns="http://www.w3.org/2000/svg" viewBox="0 0 448 512"><!--! Font Awesome Pro 6.4.0 by @fontawesome - https://fontawesome.com License - https://fontawesome.com/license (Commercial License) Copyright 2023 Fonticons, Inc. --><path d="M384 32c17.7 0 32 14.3 32 32V448c0 17.7-14.3 32-32 32H64c-17.7 0-32-14.3-32-32V64c0-17.7 14.3-32 32-32H384zM64 0C28.7 0 0 28.7 0 64V448c0 35.3 28.7 64 64 64H384c35.3 0 64-28.7 64-64V64c0-35.3-28.7-64-64-64H64zm96 128c0 8.8 7.2 16 16 16H352c8.8 0 16-7.2 16-16s-7.2-16-16-16H176c-8.8 0-16 7.2-16 16zm0 128c0 8.8 7.2 16 16 16H352c8.8 0 16-7.2 16-16s-7.2-16-16-16H176c-8.8 0-16 7.2-16 16zm0 128c0 8.8 7.2 16 16 16H352c8.8 0 16-7.2 16-16s-7.2-16-16-16H176c-8.8 0-16 7.2-16 16zM88 104c-8.8 0-16 7.2-16 16v16c0 8.8 7.2 16 16 16h16c8.8 0 16-7.2 16-16V120c0-8.8-7.2-16-16-16H88zM72 248v16c0 8.8 7.2 16 16 16h16c8.8 0 16-7.2 16-16V248c0-8.8-7.2-16-16-16H88c-8.8 0-16 7.2-16 16zM88 360c-8.8 0-16 7.2-16 16v16c0 8.8 7.2 16 16 16h16c8.8 0 16-7.2 16-16V376c0-8.8-7.2-16-16-16H88z"/></svg>
